X:1
T:Title
%%score { ( 1 3 4 ) | ( 2 5 6 ) }
L:1/8
M:9/8
K:A
V:1 treble nm="Grand Piano"
V:3 treble 
V:4 treble 
V:2 bass 
V:5 bass 
V:6 bass 
V:1
 z3 z2[Q:1/4=107] [CE] [CE]2 [DF] | [CE]3- [CE]2 [Ec] [Ec]2 [DB] | [CA]6 [EA]3 | %3
 [FA]3- [FA]2 [FB] [FA]2 [DF] |[M:5/8] [CE]-[CE]- [CE]3 |[M:2/4] [CE] [CE]2 [DF] | %6
[M:9/8] [CE]3- [CE]2 [CA] [DB]2 [=Gc] | [Fd]6 [Fd]3 | [Ec]3- [Ec]2 [Fd] c2 B |[M:3/4] [CA]6 | %10
[M:12/8] z3 B6- B z z | z3 [CA-]3 A6 | z3 c6- c z z | z3 B3- B6 | E3 [CE]6- [CE][DF][EG] | %15
[M:27/16] z/ z/ z/ z/ z e/-e/-e/-e/-e/-e/-e/-e/-e-<e z/ z/ z/ z/ z/ z/ z/ z | %16
[M:6/4] FA[Fd] c3 EAc B3- |[M:21/16] BE/-E/GB3/2-B3/2- B3 [CA]3/2- | [CA]3 z3/2 z3/2 z3/2 z3 |] %19
V:2
 z3 z2 [A,,A,] [A,,A,]2 [A,,A,] | [A,,A,]3- [A,,A,]2 [A,,A,] [A,,A,]2 [A,,E,] | [A,,E,]6 [C,A,]3 | %3
 [D,D]3- [D,D]2 [D,D] [D,D]2 [D,A,] |[M:5/8] [A,,A,]-[A,,A,]- [A,,A,]3 | %5
[M:2/4] [A,,A,] [A,,A,]2 [A,,A,] |[M:9/8] [A,,A,]3- [A,,A,]2 [=G,A,] [F,A,]2 [E,A,] | %7
 [D,A,]6 [D,A,]3 | [E,A,]3- [E,A,]2 [E,A,] [E,A,E]2 [E,D] |[M:3/4] [A,,E,]6 | %10
[M:12/8] z3 D6- D[K:treble] z z | FED[K:bass] A,,A,,[A,,E,] [A,,E,][A,,E,][A,,E,] [A,,E,]3 | %12
 z3 E6- E[K:treble] z z | z[K:treble] BA[K:bass] E,E,E, [^D,A,][D,A,][D,A,] [E,G,]3 | %14
 .[E,G,D]3 [A,,A,]6- [A,,A,][A,,A,][A,,A,] | %15
[M:27/16] [C,A,][B,,A,][A,,A,][D,A,]-<[D,A,]D,D,D,D,[D,A,]/-[D,A,]/-[D,A,]/-[D,A,]/-[D,A,]/-[D,A,]-<[D,A,] | %16
[M:6/4] [D,D]-[D,F,D][D,A,] [E,A,E]3 C-[E,C][E,A,E] [E,G,D]3- | %17
[M:21/16] [E,G,D][E,G,D]/-[E,G,D]/[E,D][E,D]3/2-[E,D]3/2- [E,D]3 [A,,E,]3/2- | %18
 [A,,E,]3 z3/2 z3/2 z3/2 z3 |] %19
V:3
 x9 | x9 | x9 | x9 |[M:5/8] x5 |[M:2/4] x4 |[M:9/8] x9 | x9 | x9 |[M:3/4] x6 | %10
[M:12/8] E3 z G,G, G,G,G, z ^AB | dcB A,E,C CCC C3 | E3 z3 A,3 z Bc | [ce]dc G2 G FFF E3 | x12 | %15
[M:27/16] [EA][EB][=Gc]F-<F-[A,F-][A,F-][A,F-][A,F-][Fd]/-[Fd]/-[Fd]/-[Fd]/-[Fd]/-[Fd]-<[Fd] | %16
[M:6/4] x12 |[M:21/16] x21/2 | x21/2 |] %19
V:4
 x9 | x9 | x9 | x9 |[M:5/8] x5 |[M:2/4] x4 |[M:9/8] x9 | x9 | x9 |[M:3/4] x6 |[M:12/8] z6 z3 .G,3 | %11
 x12 | z6 z3 A,3 | x12 | x12 |[M:27/16] x27/2 |[M:6/4] x12 |[M:21/16] x21/2 | x21/2 |] %19
V:5
 x9 | x9 | x9 | x9 |[M:5/8] x5 |[M:2/4] x4 |[M:9/8] x9 | x9 | x9 |[M:3/4] x6 | %10
[M:12/8] [A,C]3 [E,G,]E,E, E,E,E, z[K:treble] CD | x3[K:bass] x9 | C3 z3 A,,3 z[K:treble] GA | %13
 [A,,A,]3[K:treble][K:bass] z3 z6 | x12 |[M:27/16] x27/2 |[M:6/4] .A,6 .[E,A,]6 |[M:21/16] x21/2 | %18
 x21/2 |] %19
V:6
 x9 | x9 | x9 | x9 |[M:5/8] x5 |[M:2/4] x4 |[M:9/8] x9 | x9 | x9 |[M:3/4] x6 | %10
[M:12/8] z6 z3 .E,3[K:treble] | x3[K:bass] x9 | z6 z3 A,,3[K:treble] | x[K:treble] x2[K:bass] x9 | %14
 x12 |[M:27/16] x27/2 |[M:6/4] x12 |[M:21/16] x21/2 | x21/2 |] %19

